images/3234149.svg

<?xml version="1.0" encoding="UTF-8"?>
<svg xmlns="http://www.w3.org/2000/svg" xmlns:xlink="http://www.w3.org/1999/xlink" width="300pt" height="300pt" viewBox="0 0 300 300" version="1.1">
<defs>
<g>
<symbol overflow="visible" id="glyph0-0">
<path style="stroke:none;" d="M 0.59375 2.125 L 0.59375 -8.46875 L 6.59375 -8.46875 L 6.59375 2.125 Z M 1.265625 1.453125 L 5.9375 1.453125 L 5.9375 -7.78125 L 1.265625 -7.78125 Z M 1.265625 1.453125 "/>
</symbol>
<symbol overflow="visible" id="glyph0-1">
<path style="stroke:none;" d="M 1.171875 -8.75 L 2.765625 -8.75 L 6.65625 -1.4375 L 6.65625 -8.75 L 7.796875 -8.75 L 7.796875 0 L 6.203125 0 L 2.328125 -7.3125 L 2.328125 0 L 1.171875 0 Z M 1.171875 -8.75 "/>
</symbol>
<symbol overflow="visible" id="glyph0-2">
<path style="stroke:none;" d="M 4.734375 -7.953125 C 3.867188 -7.953125 3.179688 -7.628906 2.671875 -6.984375 C 2.171875 -6.347656 1.921875 -5.472656 1.921875 -4.359375 C 1.921875 -3.265625 2.171875 -2.394531 2.671875 -1.75 C 3.179688 -1.113281 3.867188 -0.796875 4.734375 -0.796875 C 5.585938 -0.796875 6.265625 -1.113281 6.765625 -1.75 C 7.273438 -2.394531 7.53125 -3.265625 7.53125 -4.359375 C 7.53125 -5.472656 7.273438 -6.347656 6.765625 -6.984375 C 6.265625 -7.628906 5.585938 -7.953125 4.734375 -7.953125 Z M 4.734375 -8.90625 C 5.953125 -8.90625 6.925781 -8.492188 7.65625 -7.671875 C 8.394531 -6.847656 8.765625 -5.742188 8.765625 -4.359375 C 8.765625 -2.984375 8.394531 -1.882812 7.65625 -1.0625 C 6.925781 -0.238281 5.953125 0.171875 4.734375 0.171875 C 3.503906 0.171875 2.519531 -0.238281 1.78125 -1.0625 C 1.039062 -1.882812 0.671875 -2.984375 0.671875 -4.359375 C 0.671875 -5.742188 1.039062 -6.847656 1.78125 -7.671875 C 2.519531 -8.492188 3.503906 -8.90625 4.734375 -8.90625 Z M 4.734375 -8.90625 "/>
</symbol>
</g>
</defs>
<g id="surface32241">
<rect x="0" y="0" width="300" height="300" style="fill:rgb(100%,100%,100%);fill-opacity:1;stroke:none;"/>
<path style="fill:none;stroke-width:1.2;stroke-linecap:butt;stroke-linejoin:miter;stroke:rgb(0%,0%,0%);stroke-opacity:1;stroke-miterlimit:10;" d="M 186.671875 208.851562 L 157.605469 213.738281 "/>
<path style="fill:none;stroke-width:1.2;stroke-linecap:butt;stroke-linejoin:miter;stroke:rgb(0%,0%,0%);stroke-opacity:1;stroke-miterlimit:10;" d="M 196.972656 181.234375 L 186.671875 208.851562 "/>
<path style="fill:none;stroke-width:1;stroke-linecap:butt;stroke-linejoin:miter;stroke:rgb(0%,0%,0%);stroke-opacity:1;stroke-miterlimit:10;" d="M 138.839844 191.007812 L 138.839844 191.007812 M 140.316406 193.617188 L 141.121094 192.953125 M 141.796875 196.226562 L 143.40625 194.898438 M 143.277344 198.839844 L 145.6875 196.847656 M 144.753906 201.449219 L 147.972656 198.792969 M 146.234375 204.058594 L 150.253906 200.738281 M 147.710938 206.667969 L 152.535156 202.683594 M 149.191406 209.277344 L 154.820312 204.632812 M 150.671875 211.890625 L 157.101562 206.578125 M 152.148438 214.5 L 159.386719 208.523438 M 153.59375 217.046875 L 161.617188 210.425781 "/>
<path style="fill:none;stroke-width:1.2;stroke-linecap:butt;stroke-linejoin:miter;stroke:rgb(0%,0%,0%);stroke-opacity:1;stroke-miterlimit:10;" d="M 138.839844 191.007812 L 125.707031 217.394531 "/>
<path style="fill:none;stroke-width:1.2;stroke-linecap:butt;stroke-linejoin:miter;stroke:rgb(0%,0%,0%);stroke-opacity:1;stroke-miterlimit:10;" d="M 138.839844 191.007812 L 149.140625 163.390625 "/>
<path style="fill:none;stroke-width:1.2;stroke-linecap:butt;stroke-linejoin:miter;stroke:rgb(0%,0%,0%);stroke-opacity:1;stroke-miterlimit:10;" d="M 117.800781 170.363281 L 138.839844 191.007812 "/>
<path style="fill:none;stroke-width:1.2;stroke-linecap:butt;stroke-linejoin:miter;stroke:rgb(0%,0%,0%);stroke-opacity:1;stroke-miterlimit:10;" d="M 125.707031 217.394531 L 96.554688 213.058594 "/>
<path style="fill:none;stroke-width:1.2;stroke-linecap:butt;stroke-linejoin:miter;stroke:rgb(0%,0%,0%);stroke-opacity:1;stroke-miterlimit:10;" d="M 96.554688 213.058594 L 94.109375 198.527344 "/>
<path style="fill:none;stroke-width:1.2;stroke-linecap:butt;stroke-linejoin:miter;stroke:rgb(0%,0%,100%);stroke-opacity:1;stroke-miterlimit:10;" d="M 94.109375 198.527344 L 91.667969 183.992188 "/>
<path style="fill:none;stroke-width:1.2;stroke-linecap:butt;stroke-linejoin:miter;stroke:rgb(0%,0%,100%);stroke-opacity:1;stroke-miterlimit:10;" d="M 91.667969 183.992188 L 104.734375 177.179688 "/>
<path style="fill:none;stroke-width:1.2;stroke-linecap:butt;stroke-linejoin:miter;stroke:rgb(0%,0%,0%);stroke-opacity:1;stroke-miterlimit:10;" d="M 104.734375 177.179688 L 117.800781 170.363281 "/>
<path style="fill:none;stroke-width:1.2;stroke-linecap:butt;stroke-linejoin:miter;stroke:rgb(0%,0%,100%);stroke-opacity:1;stroke-miterlimit:10;" d="M 91.667969 183.992188 L 78.472656 177.425781 "/>
<path style="fill:none;stroke-width:1.2;stroke-linecap:butt;stroke-linejoin:miter;stroke:rgb(0%,0%,0%);stroke-opacity:1;stroke-miterlimit:10;" d="M 78.472656 177.425781 L 65.28125 170.859375 "/>
<path style=" stroke:none;fill-rule:nonzero;fill:rgb(100%,100%,100%);fill-opacity:1;" d="M 87.667969 176.992188 L 96.667969 176.992188 L 96.667969 190.992188 L 87.667969 190.992188 Z M 87.667969 176.992188 "/>
<g style="fill:rgb(0%,0%,100%);fill-opacity:1;">
  <use xlink:href="#glyph0-1" x="87.667969" y="188.130859"/>
</g>
<path style="fill:none;stroke-width:1.2;stroke-linecap:butt;stroke-linejoin:miter;stroke:rgb(0%,0%,0%);stroke-opacity:1;stroke-miterlimit:10;" d="M 65.28125 170.859375 L 63.457031 141.441406 "/>
<path style="fill:none;stroke-width:1.2;stroke-linecap:butt;stroke-linejoin:miter;stroke:rgb(0%,0%,0%);stroke-opacity:1;stroke-miterlimit:10;" d="M 63.457031 141.441406 L 88.023438 125.15625 "/>
<path style="fill:none;stroke-width:1.2;stroke-linecap:butt;stroke-linejoin:miter;stroke:rgb(0%,0%,0%);stroke-opacity:1;stroke-miterlimit:10;" d="M 62.082031 134.03125 L 81.738281 121.003906 "/>
<path style="fill:none;stroke-width:1.2;stroke-linecap:butt;stroke-linejoin:miter;stroke:rgb(0%,0%,0%);stroke-opacity:1;stroke-miterlimit:10;" d="M 37.070312 128.308594 L 63.457031 141.441406 "/>
<path style="fill:none;stroke-width:1.2;stroke-linecap:butt;stroke-linejoin:miter;stroke:rgb(0%,0%,0%);stroke-opacity:1;stroke-miterlimit:10;" d="M 88.023438 125.15625 L 86.203125 95.738281 "/>
<path style="fill:none;stroke-width:1.2;stroke-linecap:butt;stroke-linejoin:miter;stroke:rgb(0%,0%,0%);stroke-opacity:1;stroke-miterlimit:10;" d="M 86.203125 95.738281 L 59.816406 82.605469 "/>
<path style="fill:none;stroke-width:1.2;stroke-linecap:butt;stroke-linejoin:miter;stroke:rgb(0%,0%,0%);stroke-opacity:1;stroke-miterlimit:10;" d="M 80.476562 100.632812 L 59.367188 90.128906 "/>
<path style="fill:none;stroke-width:1.2;stroke-linecap:butt;stroke-linejoin:miter;stroke:rgb(0%,0%,0%);stroke-opacity:1;stroke-miterlimit:10;" d="M 59.816406 82.605469 L 35.25 98.890625 "/>
<path style="fill:none;stroke-width:1.2;stroke-linecap:butt;stroke-linejoin:miter;stroke:rgb(0%,0%,0%);stroke-opacity:1;stroke-miterlimit:10;" d="M 35.25 98.890625 L 37.070312 128.308594 "/>
<path style="fill:none;stroke-width:1.2;stroke-linecap:butt;stroke-linejoin:miter;stroke:rgb(0%,0%,0%);stroke-opacity:1;stroke-miterlimit:10;" d="M 42.355469 101.40625 L 43.8125 124.9375 "/>
<path style="fill:none;stroke-width:1.2;stroke-linecap:butt;stroke-linejoin:miter;stroke:rgb(0%,0%,0%);stroke-opacity:1;stroke-miterlimit:10;" d="M 149.140625 163.390625 L 163.675781 160.949219 "/>
<path style="fill:none;stroke-width:1.2;stroke-linecap:butt;stroke-linejoin:miter;stroke:rgb(0%,0%,100%);stroke-opacity:1;stroke-miterlimit:10;" d="M 163.675781 160.949219 L 178.207031 158.503906 "/>
<path style="fill:none;stroke-width:1.2;stroke-linecap:butt;stroke-linejoin:miter;stroke:rgb(0%,0%,100%);stroke-opacity:1;stroke-miterlimit:10;" d="M 178.207031 158.503906 L 187.589844 169.871094 "/>
<path style="fill:none;stroke-width:1.2;stroke-linecap:butt;stroke-linejoin:miter;stroke:rgb(0%,0%,0%);stroke-opacity:1;stroke-miterlimit:10;" d="M 187.589844 169.871094 L 196.972656 181.234375 "/>
<path style="fill:none;stroke-width:1.2;stroke-linecap:butt;stroke-linejoin:miter;stroke:rgb(0%,0%,100%);stroke-opacity:1;stroke-miterlimit:10;" d="M 178.207031 158.503906 L 183.359375 144.699219 "/>
<path style="fill:none;stroke-width:1.2;stroke-linecap:butt;stroke-linejoin:miter;stroke:rgb(0%,0%,0%);stroke-opacity:1;stroke-miterlimit:10;" d="M 183.359375 144.699219 L 188.511719 130.890625 "/>
<path style=" stroke:none;fill-rule:nonzero;fill:rgb(100%,100%,100%);fill-opacity:1;" d="M 174.207031 151.503906 L 183.207031 151.503906 L 183.207031 165.503906 L 174.207031 165.503906 Z M 174.207031 151.503906 "/>
<g style="fill:rgb(0%,0%,100%);fill-opacity:1;">
  <use xlink:href="#glyph0-1" x="174.207031" y="162.642578"/>
</g>
<path style="fill:none;stroke-width:1.2;stroke-linecap:butt;stroke-linejoin:miter;stroke:rgb(0%,0%,0%);stroke-opacity:1;stroke-miterlimit:10;" d="M 191.183594 128.683594 L 181.800781 117.316406 "/>
<path style="fill:none;stroke-width:1.2;stroke-linecap:butt;stroke-linejoin:miter;stroke:rgb(100%,0%,0%);stroke-opacity:1;stroke-miterlimit:10;" d="M 181.800781 117.316406 L 172.417969 105.953125 "/>
<path style="fill:none;stroke-width:1.2;stroke-linecap:butt;stroke-linejoin:miter;stroke:rgb(0%,0%,0%);stroke-opacity:1;stroke-miterlimit:10;" d="M 185.835938 133.097656 L 176.453125 121.734375 "/>
<path style="fill:none;stroke-width:1.2;stroke-linecap:butt;stroke-linejoin:miter;stroke:rgb(100%,0%,0%);stroke-opacity:1;stroke-miterlimit:10;" d="M 176.453125 121.734375 L 167.070312 110.367188 "/>
<path style="fill:none;stroke-width:1.2;stroke-linecap:butt;stroke-linejoin:miter;stroke:rgb(0%,0%,0%);stroke-opacity:1;stroke-miterlimit:10;" d="M 188.511719 130.890625 L 217.578125 126.003906 "/>
<path style=" stroke:none;fill-rule:nonzero;fill:rgb(100%,100%,100%);fill-opacity:1;" d="M 159.746094 101.160156 L 169.746094 101.160156 L 169.746094 115.160156 L 159.746094 115.160156 Z M 159.746094 101.160156 "/>
<g style="fill:rgb(100%,0%,0%);fill-opacity:1;">
  <use xlink:href="#glyph0-2" x="159.746094" y="112.298828"/>
</g>
<path style="fill:none;stroke-width:1.2;stroke-linecap:butt;stroke-linejoin:miter;stroke:rgb(0%,0%,0%);stroke-opacity:1;stroke-miterlimit:10;" d="M 217.578125 126.003906 L 230.710938 99.617188 "/>
<path style="fill:none;stroke-width:1.2;stroke-linecap:butt;stroke-linejoin:miter;stroke:rgb(0%,0%,0%);stroke-opacity:1;stroke-miterlimit:10;" d="M 225.101562 126.453125 L 235.605469 105.34375 "/>
<path style="fill:none;stroke-width:1.2;stroke-linecap:butt;stroke-linejoin:miter;stroke:rgb(100%,0%,0%);stroke-opacity:1;stroke-miterlimit:10;" d="M 238.617188 146.648438 L 228.097656 136.324219 "/>
<path style="fill:none;stroke-width:1.2;stroke-linecap:butt;stroke-linejoin:miter;stroke:rgb(0%,0%,0%);stroke-opacity:1;stroke-miterlimit:10;" d="M 228.097656 136.324219 L 217.578125 126.003906 "/>
<path style="fill:none;stroke-width:1.2;stroke-linecap:butt;stroke-linejoin:miter;stroke:rgb(0%,0%,0%);stroke-opacity:1;stroke-miterlimit:10;" d="M 230.710938 99.617188 L 259.863281 103.953125 "/>
<path style="fill:none;stroke-width:1.2;stroke-linecap:butt;stroke-linejoin:miter;stroke:rgb(0%,0%,0%);stroke-opacity:1;stroke-miterlimit:10;" d="M 259.863281 103.953125 L 264.75 133.019531 "/>
<path style="fill:none;stroke-width:1.2;stroke-linecap:butt;stroke-linejoin:miter;stroke:rgb(0%,0%,0%);stroke-opacity:1;stroke-miterlimit:10;" d="M 253.511719 108.007812 L 257.421875 131.261719 "/>
<path style="fill:none;stroke-width:1.2;stroke-linecap:butt;stroke-linejoin:miter;stroke:rgb(0%,0%,0%);stroke-opacity:1;stroke-miterlimit:10;" d="M 264.75 133.019531 L 251.683594 139.832031 "/>
<path style="fill:none;stroke-width:1.2;stroke-linecap:butt;stroke-linejoin:miter;stroke:rgb(100%,0%,0%);stroke-opacity:1;stroke-miterlimit:10;" d="M 251.683594 139.832031 L 238.617188 146.648438 "/>
<path style=" stroke:none;fill-rule:nonzero;fill:rgb(100%,100%,100%);fill-opacity:1;" d="M 233.617188 139.648438 L 243.617188 139.648438 L 243.617188 153.648438 L 233.617188 153.648438 Z M 233.617188 139.648438 "/>
<g style="fill:rgb(100%,0%,0%);fill-opacity:1;">
  <use xlink:href="#glyph0-2" x="233.617188" y="150.787109"/>
</g>
</g>
</svg>

<svg xmlns="http://www.w3.org/2000/svg" xmlns:xlink="http://www.w3.org/1999/xlink" width="300pt" height="300pt" viewBox="0 0 300 300"><defs><symbol overflow="visible"><path d="M.594 2.125V-8.47h6V2.126zm.672-.672h4.671V-7.78h-4.67zm0 0"/></symbol><symbol overflow="visible" id="a"><path d="M1.172-8.75h1.594l3.89 7.313V-8.75h1.14V0H6.204L2.328-7.313V0H1.172zm0 0"/></symbol><symbol overflow="visible" id="b"><path d="M4.734-7.953c-.867 0-1.554.324-2.062.97-.5.635-.75 1.51-.75 2.624 0 1.094.25 1.965.75 2.61.508.637 1.195.953 2.062.953.852 0 1.532-.316 2.032-.953.507-.645.765-1.516.765-2.61 0-1.113-.257-1.988-.764-2.624-.5-.645-1.18-.97-2.032-.97zm0-.953c1.22 0 2.192.414 2.922 1.234.74.824 1.11 1.93 1.11 3.313 0 1.376-.37 2.477-1.11 3.298C6.926-.24 5.953.17 4.734.17c-1.23 0-2.214-.41-2.953-1.234C1.04-1.882.673-2.984.673-4.36c0-1.382.367-2.488 1.11-3.312.738-.82 1.722-1.234 2.952-1.234zm0 0"/></symbol></defs><g><path fill="#fff" d="M0 0h300v300H0z"/><path d="M186.672 208.852l-29.067 4.886M196.973 181.234l-10.3 27.618" stroke-width="1.2" stroke="#000" stroke-miterlimit="10" fill="none"/><path d="M138.84 191.008m1.476 2.61l.805-.665m.677 3.274l1.61-1.33m-.13 3.943l2.41-1.992m-.933 4.6l3.22-2.655m-1.74 5.266l4.02-3.322m-2.543 5.93l4.825-3.984m-3.344 6.593l5.63-4.644m-4.148 7.258l6.43-5.312m-4.954 7.922l7.24-5.977m-5.794 8.524l8.023-6.62" stroke="#000" stroke-miterlimit="10" fill="none"/><path d="M138.84 191.008l-13.133 26.387M138.84 191.008l10.3-27.617M117.8 170.363l21.04 20.645M125.707 217.395l-29.152-4.336M96.555 213.06l-2.446-14.533" stroke-width="1.2" stroke="#000" stroke-miterlimit="10" fill="none"/><path d="M94.11 198.527l-2.442-14.535M91.668 183.992l13.066-6.812" stroke-width="1.2" stroke="#00f" stroke-miterlimit="10" fill="none"/><path d="M104.734 177.18l13.067-6.817" stroke-width="1.2" stroke="#000" stroke-miterlimit="10" fill="none"/><path d="M91.668 183.992l-13.195-6.566" stroke-width="1.2" stroke="#00f" stroke-miterlimit="10" fill="none"/><path d="M78.473 177.426L65.28 170.86" stroke-width="1.2" stroke="#000" stroke-miterlimit="10" fill="none"/><path d="M87.668 176.992h9v14h-9zm0 0" fill="#fff"/><use xlink:href="#a" x="87.668" y="188.131" fill="#00f"/><path d="M65.28 170.86l-1.823-29.42M63.457 141.44l24.566-16.284M62.082 134.03l19.656-13.026M37.07 128.31l26.387 13.13M88.023 125.156l-1.82-29.418M86.203 95.738L59.816 82.605M80.477 100.633L59.367 90.13M59.816 82.605L35.25 98.89M35.25 98.89l1.82 29.42M42.355 101.406l1.458 23.53M149.14 163.39l14.536-2.44" stroke-width="1.2" stroke="#000" stroke-miterlimit="10" fill="none"/><path d="M163.676 160.95l14.53-2.446M178.207 158.504l9.383 11.367" stroke-width="1.2" stroke="#00f" stroke-miterlimit="10" fill="none"/><path d="M187.59 169.87l9.383 11.364" stroke-width="1.2" stroke="#000" stroke-miterlimit="10" fill="none"/><path d="M178.207 158.504l5.152-13.805" stroke-width="1.2" stroke="#00f" stroke-miterlimit="10" fill="none"/><path d="M183.36 144.7l5.152-13.81" stroke-width="1.2" stroke="#000" stroke-miterlimit="10" fill="none"/><path d="M174.207 151.504h9v14h-9zm0 0" fill="#fff"/><use xlink:href="#a" x="174.207" y="162.643" fill="#00f"/><path d="M191.184 128.684l-9.383-11.368" stroke-width="1.2" stroke="#000" stroke-miterlimit="10" fill="none"/><path d="M181.8 117.316l-9.382-11.363" stroke-width="1.2" stroke="#f00" stroke-miterlimit="10" fill="none"/><path d="M185.836 133.098l-9.383-11.364" stroke-width="1.2" stroke="#000" stroke-miterlimit="10" fill="none"/><path d="M176.453 121.734l-9.383-11.367" stroke-width="1.2" stroke="#f00" stroke-miterlimit="10" fill="none"/><path d="M188.512 130.89l29.066-4.886" stroke-width="1.2" stroke="#000" stroke-miterlimit="10" fill="none"/><path d="M159.746 101.16h10v14h-10zm0 0" fill="#fff"/><use xlink:href="#b" x="159.746" y="112.299" fill="#f00"/><path d="M217.578 126.004l13.133-26.387M225.102 126.453l10.503-21.11" stroke-width="1.2" stroke="#000" stroke-miterlimit="10" fill="none"/><path d="M238.617 146.648l-10.52-10.324" stroke-width="1.2" stroke="#f00" stroke-miterlimit="10" fill="none"/><path d="M228.098 136.324l-10.52-10.32M230.71 99.617l29.153 4.336M259.863 103.953l4.887 29.067M253.512 108.008l3.91 23.254M264.75 133.02l-13.066 6.812" stroke-width="1.2" stroke="#000" stroke-miterlimit="10" fill="none"/><path d="M251.684 139.832l-13.067 6.816" stroke-width="1.2" stroke="#f00" stroke-miterlimit="10" fill="none"/><path d="M233.617 139.648h10v14h-10zm0 0" fill="#fff"/><use xlink:href="#b" x="233.617" y="150.787" fill="#f00"/></g></svg>
